!!!OTL: Fuefilier-Lied.
!!!OTL-incipit: WIR SIND DIE FUESILIERE
!!!COM: Winter
!!!ARE: Europa, Mitteleuropa, Deutschland
!!!SCT: F0668
!!!TXL: @@DE
!!!YEM: Copyright 1995, estate of Helmut Schaffrath.
**kern	**text
*ICvox	*
*M4/4	*
*met(c)	*
*k[f#c#g#]	*
*A:	*
!LO:TX:a:t=Marschtempo	!
{4e	1._Wir
=1	=1
4.a	ſind
8e	die
4e	Fü-
4a	-ſi-
=2	=2
2cc#/	-lie-
4a}	-re,
{4cc#/	des
=3	=3
4.cc#/	deutſchen
8a	.
4a	Hee-
4cc#/	-res
=4	=4
2ee/	Ʒier-
4cc#}	-de,
{4cc#	und
=5	=5
4b	groß
4ee/	iſt
4dd#/	un-
4ff#/	-ſer
=6	=6
2ee/	Ruhm.
4r}	.
{4e	Die
=7	=7
4.ddn/	Waf-
8cc#/	-fe,
4.dd/	die
8cc#/	wir
=8	=8
2dd/	füh-
4b/}	-ren,
{4e	mit
=9	=9
4.ee/	Lieb'
8dd#/	und
4.ee/	Luſt
8dd#/	han-
=10	=10
2ee/	-tie-
4cc#/}	-ren,
{4a	nur
=11	=11
2aa/	ſie
2ff#/	be-
=12	=12
2.ee/	-dingt
4cc#/	ja
=13	=13
4.b/	Deutſch-
8a#/	-lands
4b/	Krie-
4cc#/	-ges-
=14	=14
4a	-ruhm.
2r}	.
==	==
!!!AGN: Soldaten, Kriegs - Lied, national
!!!ONB: ESAC (Essen Associative Code) Database: FINK
!!!AMT: simple quadruple
!!!AIN: vox
!!!EED: Helmut Schaffrath
!!!EEV: 1.0
!!!GTL: Soldaten- und Jaegerlieder
!!!source: Musikalischer Hausschatz der Deutschen. Eine Sammlung von über 1000 Liedern und Gesängen mit Singstimmen und Klavierbegleitung. Leipzig, Litterarisches Verlags-Haus.
!!!page: 442
!!!ENC: Anna Maria Matuszewska
!!!EEV: 2025/03/18
*-	*-
